!!!OTL: Lex et phase vetus
**kern
*staff1
=1-
*clefF4
*k[]
1D
1D
=2
1G
2D\
2D\
=3
1E
1C
=4
1F
2C/
2C/
=5
1D
1AA
=6
0A
=7
!!linebreak:original
1F
2D\
2C/
=8
4BB-/
4C/
4D\
4E\
2F\
2D\
=9
!LO:TX:Y=-43:t=P
0C
=10
1F
2C/
2C/
=11
1D
1AA
=12
0A
=13
!!linebreak:original
1F
2D\
2C/
=14
4BB-/
4C/
4D\
4E\
2F\
2D\
=15
0C
=16
1C
2C/
2C/
=17
1F
1C
=18
2c\
2B\
2A\
2G\
=19
!!linebreak:original
1F
1F
=20
1C
2D\
2AA/
=21
0D
=22
0C
=23
1F
2C/
2C/
=24
1D
1AA
=25
0D
==
*-
!!title: @{OTL}, @{GTL}, ed. @{ENC}
!!!pag:
!!!GTL: Hymnbook D
!!!EFL: 
!!!YEM: Creative Commons CC/BY/NC/SA 4.0
!!!ENC: Marcin Konik
!!!END: 2015-0m-dd
!!!EED: Marcin Konik
!!!EEV: 
!!!ONB: Encoded in vim by Marcin Konik
!!!CharacterEncoding: utf-8
!!!RDF**kern: l=long note in original notation
!!!RDF**kern: i=editorial accidental
!!muse2ps: z14jc180F
!!!COM: Anonim
!!!CDT: [?]
!!!TXO: Polish
!!!ODT: 
!!!GTL: Hymnbook D
!!!ARL: Opactwo św. Wojciecha, Staniątki 
!!!voices:	1
